X:1
T:Je chanterai
T:Je chanterai
T:André Vierendeels (28/11/10)
C:André Vierendeels
C:(28/11/10)
%%score [ 1 2 3 4 ]
L:1/8
Q:1/4=120
M:2/4
K:G
V:1 treble nm="Soprano" snm="S"
V:2 treble nm="Alto" snm="A"
V:3 treble-8 nm="Tenor" snm="T"
V:4 bass nm="Bass" snm="B"
V:1
 G4 |[M:2/2] E4 D4 | G4 A4 | B6 B2 | d4 c4 | B4 A4 |[M:2/4] !fermata!G4 :| B4 |[M:2/2] B4 A4 | %9
w: Je|chan- te-|rai, Sei-|gneur, sans|ces- se|ta bon-|té;|je|di- rai|
w: Je|par- le-|rai sans|fin de|ta fi-|dé- li-|té,|||
 G4 c4 | B6 G2 | A4 F4 | F4 F4 | E8 | !fermata!D4 D4 | E4 G4 | G4 F4 | G4 D4 | G4 A4 | B4 G4 | c8 | %21
w: ta bon-|té dont|la ter-|r'est- rem-|pli-|e, et|ta fi-|dé- li-|té dans|les cieux|é- ta-|bli-|
w: ||||||||||||
 !fermata!B4 B4 | c4 B4 | A4 A4 | G4 c4 | B4 A4 | G4 F4 | E8 | !fermata!D4 A4 | B4 A4 | G4 F4 | %31
w: e, de|tous ces|vas- tes|corps la|cour- se'in-|va- ri-|a-|ble prou-|ve que|ta pa-|
w: ||||||||||
 G4 A4 | B4 d4 | c4 B4 | A8 | !fermata!G8 |] %36
w: ro- l'est|tou- jours|im- mu-|a-|ble.|
w: |||||
V:2
 D4 |[M:2/2] C4 A,4 | D4 E4 | E4 G4 | A2 D2 E4 | D4 FGAF |[M:2/4] !fermata!D4 :| D4 | %8
w: Je|chan- te-|rai, Sei-|gneur, sans|ces- * ce|ta bon- * * *|te;|je|
w: Je|par- le-|rai sans|fin de|ta _ fi-|dé- li- * * *|te,||
[M:2/2] D4 F4 | E4 E4 | E4 G4 | D4 D4 | D4 ^C4 | ^C8 | !fermata!A,4 B,4 | C4 D4 | E4 D4 | %17
w: di- rai|ta bon-|té dont|la ter-|r'est rem-|pli-|e, et|ta fi-|dé- li-|
w: |||||||||
 E4 B,2 C2 | D4 E4 | D4 E4 | G6 FE | !fermata!D4 D4 | G4 D4 | F4 E4 | E2 F2 G2 A2 | G4 D4 | %26
w: té dans _|les cieux|é- ta-|bli- * *|e, de|tous ces|vas- tes|corps _ _ la|cour- se'in-|
w: |||||||||
 B,2 C2 D4- | D4 ^C4 | !fermata!A,4 ^C4 | D4 F4 | D2 CB, A,2 D2 | D4 E4 | E4 F4 | AGFE D4 | %34
w: va- * ri-|* a-|ble prou-|ve que|ta _ _ _ pa-|ro- l'est|tou- jours|im- mu- * * *|
w: ||||||||
 G2 FE F G2 F | !fermata!D8 |] %36
w: a- * * * * *|ble.|
w: ||
V:3
 B4 |[M:2/2] G4 F4 | G4 A4 | G4 B4 | A4 G4 | G4 A4 |[M:2/4] !fermata!B4 :| G4 |[M:2/2] F4 A4 | %9
w: Je|chan- te-|rai, Sei-|gneur, sans|ces- se|ta bon-|te;|je|di- rai|
w: Je|par- le-|rai sans|fin de|ta fi-|dé- li-|te,|||
 c4 A4 | B4 B4 | d4 A4 | B4 A4 | ^G4 A4 | !fermata!F4 G4 | G4 B4 | B4 d4 | cBAG F2 A2 | B4 A4 | %19
w: ta bon-|te dont|la ter-|r'est rem-|pli- *|e, et|ta fi-|dé- li-|té _ _ _ _ dans|les cieux|
w: ||||||||||
 B2 F2 B4 | c6 A2 | !fermata!B4 F4 | EFGA B4 | F2 G2 A2 B2 | A4 G4 | dcBG F4 | B2 G2 A4- | %27
w: _ _ _|bli- *|e, de|_ _ _ _ _|va- * * tes|corps la|cour- * * * se'in-|va- * ri-|
w: ||||||||
 A2 GF E2 A2 | !fermata!F4 AGFE | DEFG A4- | A2 G2 A4 | B4 A4 | ^G3 A BAGF | E4 G4 | A2 B2 A2 d2 | %35
w: |ble _ _ _ _|_ _ _ _ _|* ta pa-|ro- l'est|tou- * jours _ _ _|im- mu|_ a- * *|
w: ||||||||
 !fermata!B8 |] %36
w: ble.|
w: |
V:4
 G,4 |[M:2/2] C,4 D,4 | G,,4 C,4 | E,4 G,4 | F,4 C,4 | G,4 D,4 |[M:2/4] !fermata!G,,4 :| G,,4 | %8
w: Je|chan- te-|rai, Sei-|gneur sans|ces- se|ta bon-|té;|je|
w: Je|par- le-|rai sans|fin de|ta fi-|dé- li-|te,-||
[M:2/2] B,,4 D,4 | C,4 A,,B,,C,D, | E,4 G,4 | F,4 D,4 | B,,^C,D,E, F,4 | ^C,4 A,,4 | %14
w: di- rai|ta _ _ _ _|té dont|le ter-|r'est _ _ _ rem-|pli- *|
w: ||||||
 !fermata!D,4 G,,4 | C,D,E,F, G,4 | E,4 D,4 | C,4 B,,2 A,,2 | G,,4 C,4 | B,,2 D,2 E,4 | %20
w: e, et|_ _ _ _ _|dé- li-|té dans _|les cieux|_ _ _|
w: ||||||
 C,2 E,4 D,2 | !fermata!G,,4 B,,4 | C,D,E,F, G,4 | D,4 ^C,4- | C,2 D,2 =C,4 | G,,A,,B,,C, D,4 | %26
w: bli- * *|e, de|_ _ _ _ _|vas- tes|_ corps la|_ _ _ _ _|
w: ||||||
 G,2 E,2 D,4 | A,,B,,^C,D, A,,4 | !fermata!D,4 A,,4 | G,,4 D,4 | D,2 E,2 D,4 | G,=F,E,D, ^C,3 D, | %32
w: va- * ri-|a- * * * *|ble prou-|ve que|ta _ pa-|ro- * * * l'est _|
w: ||||||
 E,4 B,,4 | A,,4 G,,A,,B,,C, | D,4- D,C,B,,A,, | !fermata!G,,8 |] %36
w: tou- jours|im- mu- * * *|a- * * * *|ble.|
w: ||||

